X: 1
T: Gan Ainm
M: 2/4
L: 1/8
R: polka
K: D Major 
|: dB |\
AF dF | A2 AF | GA Bc | ed cB |
AF dF | A2 AF | GA Bc | d2 :|
|: de |\
fd ec | dc BA | Be ed | cB cA |
f2 e2 | dc BA | Be Bc | d2- :|
